icons/14x14_document_accept_outline.svg

<svg xmlns="http://www.w3.org/2000/svg" width="14" height="14" viewBox="0 0 14 14">
  <path fill-rule="evenodd" d="M7,11 L7,13 L3,13 C2.44771525,13 2,12.5522847 2,12 L2,2 C2,1.44771525 2.44771525,1 3,1 L9,1 L12,5 L12,8 L10,8 L10,6 L8,6 L8,3 L4,3 L4,11 L7,11 Z M10.5355339,11 L12.5355339,9 L13.9497475,10.4142136 L10.5355339,13.8284271 L8,11.2928932 L9.41421356,9.87867966 L10.5355339,11 Z"/>
</svg>

<svg width="14" height="14" fill="none" xmlns="http://www.w3.org/2000/svg"><path fill-rule="evenodd" clip-rule="evenodd" d="M7 11v2H3a1 1 0 0 1-1-1V2a1 1 0 0 1 1-1h6l3 4v3h-2V6H8V3H4v8h3Zm3.536 0 2-2 1.414 1.414-3.414 3.414L8 11.293l1.414-1.414L10.536 11Z" fill="#000"/></svg>
